images/about/about-c4.svg

<svg fill="none" height="150" viewBox="0 0 250 150" width="250" xmlns="http://www.w3.org/2000/svg"><g fill="#aaeb89"><path d="m131.839 106.203h-14.073v43.082h14.073z"/><path d="m169.795 135.211h-31.703v14.074h31.703z"/><path d="m180.467 85.877h-22.049v14.0732h22.049z"/><path d="m111.513 135.211h-14.073v14.074h14.073z"/><path d="m111.513 55.6311v-22.3806l-37.5363 46.374h18.1166z"/><path d="m117.766 79.6245h14.073v-71.36156l-14.073 17.27706z"/><path d="m152.165 19.7515-14.073 17.3654v91.8861h14.073z"/><path d="m131.839 85.877h-61.839v14.0734h61.839z"/><path d="m140.058 0-1.966 2.43023v24.76627l14.073-17.3872z"/></g></svg>

<svg width="250" height="150" viewBox="0 0 250 150" fill="none" xmlns="http://www.w3.org/2000/svg">
<path d="M131.839 106.203H117.766V149.285H131.839V106.203Z" fill="#AAEB89"/>
<path d="M169.795 135.211H138.092V149.285H169.795V135.211Z" fill="#AAEB89"/>
<path d="M180.467 85.877H158.418V99.9502H180.467V85.877Z" fill="#AAEB89"/>
<path d="M111.513 135.211H97.44V149.285H111.513V135.211Z" fill="#AAEB89"/>
<path d="M111.513 55.6311V33.2505L73.9767 79.6245H92.0933L111.513 55.6311Z" fill="#AAEB89"/>
<path d="M117.766 79.6245H131.839V8.26294L117.766 25.54V79.6245Z" fill="#AAEB89"/>
<path d="M152.165 19.7515L138.092 37.1169V129.003H152.165V19.7515Z" fill="#AAEB89"/>
<path d="M131.839 85.877H70V99.9504H131.839V85.877Z" fill="#AAEB89"/>
<path d="M140.058 0L138.092 2.43023V27.1965L152.165 9.8093L140.058 0Z" fill="#AAEB89"/>
</svg>
